src/assets/img/bottomTabBar/wallet_tab.svg

<svg fill="none" height="24" viewBox="0 0 24 24" width="24" xmlns="http://www.w3.org/2000/svg"><path d="m3.75 6v12c0 .3978.15804.7794.43934 1.0607s.66284.4393 1.06066.4393h15c.1989 0 .3897-.079.5303-.2197.1407-.1406.2197-.3314.2197-.5303v-10.5c0-.19891-.079-.38968-.2197-.53033-.1406-.14065-.3314-.21967-.5303-.21967h-15c-.39782 0-.77936-.15804-1.06066-.43934s-.43934-.66284-.43934-1.06066zm0 0c0-.39782.15804-.77936.43934-1.06066s.66284-.43934 1.06066-.43934h12.75" stroke="#fff" stroke-linecap="round" stroke-linejoin="round" stroke-width="1.5"/><path d="m16.875 14.625c.6213 0 1.125-.5037 1.125-1.125s-.5037-1.125-1.125-1.125-1.125.5037-1.125 1.125.5037 1.125 1.125 1.125z" fill="#fff"/></svg>

<svg width="24" height="24" viewBox="0 0 24 24" fill="none" xmlns="http://www.w3.org/2000/svg">
<path d="M3.75 6V18C3.75 18.3978 3.90804 18.7794 4.18934 19.0607C4.47064 19.342 4.85218 19.5 5.25 19.5H20.25C20.4489 19.5 20.6397 19.421 20.7803 19.2803C20.921 19.1397 21 18.9489 21 18.75V8.25C21 8.05109 20.921 7.86032 20.7803 7.71967C20.6397 7.57902 20.4489 7.5 20.25 7.5H5.25C4.85218 7.5 4.47064 7.34196 4.18934 7.06066C3.90804 6.77936 3.75 6.39782 3.75 6ZM3.75 6C3.75 5.60218 3.90804 5.22064 4.18934 4.93934C4.47064 4.65804 4.85218 4.5 5.25 4.5H18" stroke="white" stroke-width="1.5" stroke-linecap="round" stroke-linejoin="round"/>
<path d="M16.875 14.625C17.4963 14.625 18 14.1213 18 13.5C18 12.8787 17.4963 12.375 16.875 12.375C16.2537 12.375 15.75 12.8787 15.75 13.5C15.75 14.1213 16.2537 14.625 16.875 14.625Z" fill="white"/>
</svg>
